{"type":"map","version":"1.10","tiledversion":"1.11.0","orientation":"orthogonal","renderorder":"right-down","width":32,"height":16,"tilewidth":32,"tileheight":32,"infinite":false,"nextlayerid":99,"nextobjectid":21,"tilesets":[{"firstgid":1,"name":"surfaces","tilewidth":32,"tileheight":32,"tilecount":9,"columns":9,"image":"surfaces.png","imagewidth":288,"imageheight":32,"tiles":[{"id":0,"properties":[{"name":"surface","type":"string","value":"dirt"}]},{"id":1,"properties":[{"name":"surface","type":"string","value":"tarmac"}]},{"id":2,"properties":[{"name":"surface","type":"string","value":"mud"}]},{"id":3,"properties":[{"name":"surface","type":"string","value":"water"}]},{"id":4,"properties":[{"name":"surface","type":"string","value":"oil"}]},{"id":5,"properties":[{"name":"surface","type":"string","value":"boost"}]},{"id":6,"properties":[{"name":"surface","type":"string","value":"toxic"}]},{"id":7,"properties":[{"name":"surface","type":"string","value":"mogul"}]},{"id":8,"properties":[{"name":"surface","type":"string","value":"ramp"}]}]}],"layers":[{"id":20,"name":"surface","type":"tilelayer","width":32,"height":16,"data":[1,1,1,1,1,1,1,1,1,1,1,1,1,1,1,1,1,1,1,1,1,1,1,1,1,1,1,1,1,1,1,1,1,1,1,1,1,1,1,1,8,1,8,1,8,1,1,1,1,1,1,1,1,1,1,1,1,1,1,1,1,1,1,1,1,1,1,1,1,1,1,1,8,1,8,1,8,1,1,1,1,1,1,1,1,1,1,1,1,1,1,1,1,1,1,1,1,1,1,1,1,1,1,1,8,1,8,1,8,1,1,1,1,1,1,1,1,1,1,1,1,1,1,1,1,1,1,1,1,1,1,1,1,1,1,1,1,1,1,1,1,1,1,1,1,1,1,1,1,1,1,1,1,1,1,1,1,1,1,1,1,1,1,1,1,1,1,1,1,1,1,1,1,1,1,1,1,1,1,1,1,1,1,1,1,1,1,1,1,1,1,1,1,1,1,1,1,1,1,1,1,1,1,1,1,1,1,1,1,1,1,1,1,1,1,1,1,1,1,1,1,1,1,1,1,1,1,1,1,1,1,7,7,1,1,1,1,1,1,1,1,1,1,1,1,1,1,1,1,1,1,1,1,1,1,1,1,9,9,9,1,1,7,7,1,1,1,1,1,1,1,1,1,1,1,1,1,1,1,1,1,1,1,1,1,1,1,1,1,1,1,1,1,1,1,7,7,1,1,1,1,1,1,1,1,1,1,1,1,1,1,1,1,1,1,1,1,1,1,1,1,1,1,1,1,1,1,1,1,1,1,1,1,1,1,1,1,1,1,1,1,1,1,1,1,1,1,7,1,1,1,1,1,1,1,1,1,1,1,1,1,1,1,1,1,1,1,1,1,1,1,1,1,1,1,1,1,1,7,7,7,1,1,1,1,1,1,1,1,1,1,1,1,1,1,1,1,6,6,1,1,1,1,1,1,1,1,1,1,1,7,7,7,1,1,1,1,1,1,1,1,1,1,1,1,1,1,1,1,6,6,1,1,1,1,1,1,1,1,1,1,1,1,1,1,1,1,1,1,1,1,1,1,1,1,1,1,1,1,1,1,6,6,1,1,1,1,1,1,1,1,1,1,1,1,1,1,1,1,1,1,1,1,1,1,1,1,1,1,1,1,1,1,1,1,1,1,1,1,1,1,1,1,1,1,1,1,1,1,1,1,1],"visible":true,"opacity":1,"x":0,"y":0},{"name":"walls","type":"objectgroup","objects":[{"id":1,"name":"wall0","x":1024,"y":0,"polygon":[{"x":-520,"y":482},{"x":-550,"y":482},{"x":-581,"y":483},{"x":-613,"y":483},{"x":-645,"y":484},{"x":-676,"y":485},{"x":-708,"y":486},{"x":-738,"y":486},{"x":-767,"y":486},{"x":-795,"y":486},{"x":-821,"y":485},{"x":-844,"y":484},{"x":-865,"y":482},{"x":-883,"y":479},{"x":-897,"y":477},{"x":-910,"y":475},{"x":-923,"y":472},{"x":-935,"y":467},{"x":-949,"y":460},{"x":-961,"y":450},{"x":-970,"y":438},{"x":-976,"y":426},{"x":-980,"y":415},{"x":-984,"y":404},{"x":-988,"y":391},{"x":-991,"y":375},{"x":-994,"y":355},{"x":-996,"y":334},{"x":-998,"y":312},{"x":-998,"y":288},{"x":-998,"y":265},{"x":-998,"y":241},{"x":-997,"y":218},{"x":-995,"y":196},{"x":-993,"y":175},{"x":-991,"y":157},{"x":-988,"y":142},{"x":-986,"y":131},{"x":-985,"y":123},{"x":-984,"y":115},{"x":-982,"y":106},{"x":-978,"y":93},{"x":-969,"y":78},{"x":-956,"y":66},{"x":-942,"y":59},{"x":-929,"y":55},{"x":-917,"y":52},{"x":-903,"y":50},{"x":-885,"y":47},{"x":-864,"y":45},{"x":-839,"y":44},{"x":-812,"y":43},{"x":-783,"y":43},{"x":-752,"y":43},{"x":-719,"y":43},{"x":-685,"y":44},{"x":-651,"y":45},{"x":-617,"y":46},{"x":-584,"y":46},{"x":-551,"y":47},{"x":-520,"y":47},{"x":-488,"y":47},{"x":-455,"y":46},{"x":-420,"y":46},{"x":-384,"y":45},{"x":-348,"y":44},{"x":-312,"y":43},{"x":-277,"y":43},{"x":-244,"y":43},{"x":-212,"y":43},{"x":-183,"y":44},{"x":-157,"y":45},{"x":-134,"y":47},{"x":-114,"y":51},{"x":-97,"y":55},{"x":-81,"y":62},{"x":-66,"y":70},{"x":-53,"y":82},{"x":-44,"y":96},{"x":-38,"y":111},{"x":-36,"y":124},{"x":-36,"y":135},{"x":-36,"y":143},{"x":-37,"y":147},{"x":-37,"y":149},{"x":-37,"y":152},{"x":-37,"y":157},{"x":-36,"y":165},{"x":-37,"y":176},{"x":-40,"y":189},{"x":-45,"y":203},{"x":-55,"y":217},{"x":-67,"y":228},{"x":-81,"y":237},{"x":-97,"y":243},{"x":-114,"y":248},{"x":-134,"y":252},{"x":-156,"y":254},{"x":-182,"y":255},{"x":-210,"y":256},{"x":-241,"y":256},{"x":-274,"y":256},{"x":-308,"y":256},{"x":-342,"y":255},{"x":-377,"y":254},{"x":-410,"y":253},{"x":-443,"y":253},{"x":-473,"y":252},{"x":-500,"y":252},{"x":-527,"y":252},{"x":-554,"y":251},{"x":-580,"y":251},{"x":-606,"y":250},{"x":-631,"y":249},{"x":-655,"y":248},{"x":-678,"y":248},{"x":-699,"y":248},{"x":-719,"y":248},{"x":-736,"y":249},{"x":-751,"y":250},{"x":-762,"y":251},{"x":-771,"y":253},{"x":-777,"y":255},{"x":-781,"y":257},{"x":-782,"y":258},{"x":-782,"y":258},{"x":-782,"y":258},{"x":-782,"y":257},{"x":-782,"y":257},{"x":-782,"y":257},{"x":-782,"y":259},{"x":-782,"y":261},{"x":-782,"y":264},{"x":-782,"y":267},{"x":-782,"y":269},{"x":-782,"y":271},{"x":-782,"y":272},{"x":-782,"y":271},{"x":-782,"y":271},{"x":-782,"y":271},{"x":-782,"y":271},{"x":-780,"y":272},{"x":-777,"y":274},{"x":-771,"y":276},{"x":-762,"y":278},{"x":-750,"y":279},{"x":-736,"y":280},{"x":-719,"y":281},{"x":-699,"y":281},{"x":-678,"y":281},{"x":-655,"y":281},{"x":-631,"y":280},{"x":-606,"y":279},{"x":-580,"y":278},{"x":-554,"y":278},{"x":-527,"y":277},{"x":-500,"y":277},{"x":-473,"y":277},{"x":-443,"y":276},{"x":-410,"y":276},{"x":-377,"y":275},{"x":-342,"y":274},{"x":-308,"y":273},{"x":-274,"y":273},{"x":-241,"y":273},{"x":-210,"y":273},{"x":-182,"y":274},{"x":-156,"y":275},{"x":-134,"y":277},{"x":-115,"y":281},{"x":-97,"y":285},{"x":-82,"y":292},{"x":-68,"y":300},{"x":-55,"y":312},{"x":-46,"y":325},{"x":-40,"y":339},{"x":-37,"y":352},{"x":-36,"y":363},{"x":-37,"y":371},{"x":-37,"y":376},{"x":-37,"y":379},{"x":-37,"y":381},{"x":-36,"y":385},{"x":-36,"y":393},{"x":-36,"y":404},{"x":-38,"y":417},{"x":-43,"y":432},{"x":-53,"y":446},{"x":-66,"y":458},{"x":-80,"y":467},{"x":-96,"y":473},{"x":-114,"y":478},{"x":-134,"y":482},{"x":-157,"y":484},{"x":-183,"y":485},{"x":-213,"y":486},{"x":-244,"y":486},{"x":-278,"y":486},{"x":-313,"y":486},{"x":-349,"y":485},{"x":-385,"y":484},{"x":-421,"y":483},{"x":-456,"y":483},{"x":-489,"y":482}],"visible":true,"rotation":0},{"id":2,"name":"wall1","x":1024,"y":0,"polygon":[{"x":-520,"y":392},{"x":-551,"y":392},{"x":-583,"y":393},{"x":-615,"y":393},{"x":-647,"y":394},{"x":-679,"y":395},{"x":-709,"y":396},{"x":-739,"y":396},{"x":-767,"y":396},{"x":-793,"y":396},{"x":-817,"y":395},{"x":-837,"y":394},{"x":-855,"y":392},{"x":-870,"y":390},{"x":-883,"y":388},{"x":-892,"y":387},{"x":-895,"y":385},{"x":-898,"y":378},{"x":-900,"y":369},{"x":-903,"y":358},{"x":-905,"y":344},{"x":-907,"y":327},{"x":-908,"y":308},{"x":-908,"y":287},{"x":-908,"y":265},{"x":-908,"y":244},{"x":-907,"y":223},{"x":-906,"y":203},{"x":-904,"y":185},{"x":-902,"y":171},{"x":-900,"y":158},{"x":-898,"y":147},{"x":-889,"y":139},{"x":-875,"y":137},{"x":-857,"y":135},{"x":-835,"y":134},{"x":-811,"y":133},{"x":-783,"y":133},{"x":-752,"y":133},{"x":-721,"y":133},{"x":-687,"y":134},{"x":-653,"y":135},{"x":-619,"y":136},{"x":-585,"y":136},{"x":-552,"y":137},{"x":-520,"y":137},{"x":-488,"y":137},{"x":-453,"y":136},{"x":-418,"y":136},{"x":-382,"y":135},{"x":-346,"y":134},{"x":-310,"y":133},{"x":-276,"y":133},{"x":-244,"y":133},{"x":-214,"y":133},{"x":-187,"y":134},{"x":-164,"y":135},{"x":-146,"y":137},{"x":-133,"y":139},{"x":-127,"y":141},{"x":-127,"y":149},{"x":-127,"y":156},{"x":-126,"y":158},{"x":-134,"y":160},{"x":-146,"y":162},{"x":-163,"y":164},{"x":-185,"y":165},{"x":-212,"y":166},{"x":-241,"y":166},{"x":-273,"y":166},{"x":-306,"y":166},{"x":-340,"y":165},{"x":-374,"y":164},{"x":-408,"y":163},{"x":-441,"y":163},{"x":-472,"y":162},{"x":-500,"y":162},{"x":-526,"y":162},{"x":-552,"y":161},{"x":-578,"y":161},{"x":-603,"y":160},{"x":-628,"y":159},{"x":-653,"y":158},{"x":-677,"y":158},{"x":-699,"y":158},{"x":-721,"y":158},{"x":-741,"y":159},{"x":-760,"y":160},{"x":-778,"y":163},{"x":-794,"y":166},{"x":-809,"y":171},{"x":-823,"y":178},{"x":-836,"y":186},{"x":-847,"y":195},{"x":-856,"y":206},{"x":-862,"y":217},{"x":-867,"y":229},{"x":-870,"y":239},{"x":-871,"y":249},{"x":-872,"y":257},{"x":-872,"y":264},{"x":-872,"y":271},{"x":-871,"y":279},{"x":-870,"y":289},{"x":-867,"y":299},{"x":-863,"y":311},{"x":-856,"y":322},{"x":-847,"y":333},{"x":-836,"y":343},{"x":-824,"y":351},{"x":-810,"y":358},{"x":-794,"y":363},{"x":-778,"y":366},{"x":-760,"y":369},{"x":-741,"y":370},{"x":-721,"y":371},{"x":-699,"y":371},{"x":-676,"y":371},{"x":-653,"y":371},{"x":-628,"y":370},{"x":-603,"y":369},{"x":-578,"y":368},{"x":-552,"y":368},{"x":-526,"y":367},{"x":-500,"y":367},{"x":-472,"y":367},{"x":-441,"y":366},{"x":-408,"y":366},{"x":-374,"y":365},{"x":-340,"y":364},{"x":-306,"y":363},{"x":-273,"y":363},{"x":-241,"y":363},{"x":-212,"y":363},{"x":-185,"y":364},{"x":-163,"y":365},{"x":-146,"y":367},{"x":-134,"y":369},{"x":-127,"y":372},{"x":-127,"y":379},{"x":-127,"y":387},{"x":-133,"y":390},{"x":-146,"y":392},{"x":-164,"y":394},{"x":-187,"y":395},{"x":-214,"y":396},{"x":-244,"y":396},{"x":-277,"y":396},{"x":-312,"y":396},{"x":-347,"y":395},{"x":-383,"y":394},{"x":-419,"y":393},{"x":-454,"y":393},{"x":-488,"y":392}],"visible":true,"rotation":0}],"visible":true,"opacity":1,"x":0,"y":0,"id":21},{"name":"checkpoints","type":"objectgroup","objects":[{"id":3,"name":"cp1","x":1024,"y":0,"polyline":[{"x":-991,"y":141},{"x":-897,"y":159}],"visible":true,"rotation":0},{"id":4,"name":"cp2","x":1024,"y":0,"polyline":[{"x":-520,"y":44},{"x":-520,"y":140}],"visible":true,"rotation":0},{"id":5,"name":"cp3","x":1024,"y":0,"polyline":[{"x":-134,"y":255},{"x":-146,"y":159}],"visible":true,"rotation":0},{"id":6,"name":"cp4","x":1024,"y":0,"polyline":[{"x":-762,"y":254},{"x":-778,"y":160}],"visible":true,"rotation":0},{"id":7,"name":"cp5","x":1024,"y":0,"polyline":[{"x":-762,"y":275},{"x":-778,"y":369}],"visible":true,"rotation":0},{"id":8,"name":"cp6","x":1024,"y":0,"polyline":[{"x":-134,"y":274},{"x":-146,"y":370}],"visible":true,"rotation":0},{"id":9,"name":"cp7","x":1024,"y":0,"polyline":[{"x":-134,"y":485},{"x":-146,"y":389}],"visible":true,"rotation":0},{"id":10,"name":"finish","x":1024,"y":0,"polyline":[{"x":-520,"y":485},{"x":-520,"y":389}],"visible":true,"rotation":0}],"visible":true,"opacity":1,"x":0,"y":0,"id":22},{"name":"spawns","type":"objectgroup","objects":[{"id":11,"name":"spawn1","point":true,"x":554,"y":417,"rotation":179.65973297517826,"visible":true},{"id":12,"name":"spawn2","point":true,"x":594,"y":456,"rotation":179.65973297517826,"visible":true},{"id":13,"name":"spawn3","point":true,"x":634,"y":416,"rotation":179.65973297517826,"visible":true},{"id":14,"name":"spawn4","point":true,"x":674,"y":456,"rotation":179.65973297517826,"visible":true},{"id":15,"name":"spawn5","point":true,"x":714,"y":416,"rotation":179.65973297517826,"visible":true}],"visible":true,"opacity":1,"x":0,"y":0,"id":23},{"name":"waypoints","type":"objectgroup","objects":[{"id":19,"name":"line","x":1024,"y":0,"polygon":[{"x":-520,"y":437},{"x":-582,"y":438},{"x":-646,"y":439},{"x":-709,"y":441},{"x":-767,"y":441},{"x":-819,"y":440},{"x":-860,"y":437},{"x":-890,"y":433},{"x":-910,"y":429},{"x":-923,"y":423},{"x":-932,"y":414},{"x":-938,"y":400},{"x":-944,"y":380},{"x":-950,"y":350},{"x":-953,"y":310},{"x":-953,"y":265},{"x":-952,"y":220},{"x":-949,"y":180},{"x":-944,"y":150},{"x":-940,"y":130},{"x":-938,"y":116},{"x":-935,"y":107},{"x":-926,"y":101},{"x":-909,"y":96},{"x":-880,"y":92},{"x":-837,"y":89},{"x":-783,"y":88},{"x":-720,"y":88},{"x":-652,"y":90},{"x":-585,"y":91},{"x":-520,"y":92},{"x":-454,"y":91},{"x":-383,"y":90},{"x":-311,"y":88},{"x":-244,"y":88},{"x":-185,"y":89},{"x":-140,"y":92},{"x":-110,"y":98},{"x":-93,"y":107},{"x":-84,"y":117},{"x":-81,"y":128},{"x":-81,"y":139},{"x":-82,"y":149},{"x":-81,"y":159},{"x":-82,"y":170},{"x":-85,"y":182},{"x":-94,"y":192},{"x":-112,"y":201},{"x":-140,"y":207},{"x":-184,"y":210},{"x":-241,"y":211},{"x":-307,"y":211},{"x":-375,"y":209},{"x":-442,"y":208},{"x":-500,"y":207},{"x":-553,"y":206},{"x":-605,"y":205},{"x":-654,"y":203},{"x":-699,"y":203},{"x":-738,"y":204},{"x":-770,"y":207},{"x":-793,"y":213},{"x":-809,"y":222},{"x":-819,"y":232},{"x":-824,"y":243},{"x":-827,"y":254},{"x":-827,"y":264},{"x":-827,"y":274},{"x":-824,"y":285},{"x":-819,"y":297},{"x":-809,"y":307},{"x":-793,"y":316},{"x":-770,"y":322},{"x":-738,"y":325},{"x":-699,"y":326},{"x":-654,"y":326},{"x":-605,"y":324},{"x":-553,"y":323},{"x":-500,"y":322},{"x":-442,"y":321},{"x":-375,"y":320},{"x":-307,"y":318},{"x":-241,"y":318},{"x":-184,"y":319},{"x":-140,"y":322},{"x":-112,"y":328},{"x":-94,"y":337},{"x":-85,"y":347},{"x":-82,"y":358},{"x":-81,"y":369},{"x":-82,"y":379},{"x":-81,"y":389},{"x":-81,"y":400},{"x":-84,"y":412},{"x":-93,"y":422},{"x":-110,"y":431},{"x":-140,"y":437},{"x":-185,"y":440},{"x":-244,"y":441},{"x":-312,"y":441},{"x":-384,"y":439},{"x":-455,"y":438}],"visible":true,"rotation":0}],"visible":true,"opacity":1,"x":0,"y":0,"id":24},{"name":"items","type":"objectgroup","objects":[{"id":16,"name":"item1","point":true,"x":762,"y":70,"rotation":180,"visible":true},{"id":17,"name":"item2","point":true,"x":718,"y":92,"rotation":180,"visible":true},{"id":18,"name":"item3","point":true,"x":674,"y":114,"rotation":180,"visible":true}],"visible":true,"opacity":1,"x":0,"y":0,"id":25},{"name":"bridges","type":"objectgroup","objects":[],"visible":true,"opacity":1,"x":0,"y":0,"id":26}]}