{"type":"map","version":"1.10","tiledversion":"1.11.0","orientation":"orthogonal","renderorder":"right-down","width":32,"height":16,"tilewidth":32,"tileheight":32,"infinite":false,"nextlayerid":99,"nextobjectid":31,"tilesets":[{"firstgid":1,"name":"surfaces","tilewidth":32,"tileheight":32,"tilecount":9,"columns":9,"image":"surfaces.png","imagewidth":288,"imageheight":32,"tiles":[{"id":0,"properties":[{"name":"surface","type":"string","value":"dirt"}]},{"id":1,"properties":[{"name":"surface","type":"string","value":"tarmac"}]},{"id":2,"properties":[{"name":"surface","type":"string","value":"mud"}]},{"id":3,"properties":[{"name":"surface","type":"string","value":"water"}]},{"id":4,"properties":[{"name":"surface","type":"string","value":"oil"}]},{"id":5,"properties":[{"name":"surface","type":"string","value":"boost"}]},{"id":6,"properties":[{"name":"surface","type":"string","value":"toxic"}]},{"id":7,"properties":[{"name":"surface","type":"string","value":"mogul"}]},{"id":8,"properties":[{"name":"surface","type":"string","value":"ramp"}]}]}],"layers":[{"id":30,"name":"surface","type":"tilelayer","width":32,"height":16,"data":[1,1,1,1,1,1,1,1,1,1,1,1,1,1,1,1,1,1,1,1,1,1,1,1,1,1,1,1,1,1,1,1,1,1,1,1,1,1,1,1,1,1,1,1,1,1,1,1,1,1,1,1,1,1,1,1,1,1,1,1,1,1,1,1,1,1,1,1,1,1,1,1,1,1,1,1,1,1,1,1,1,1,1,1,1,1,1,1,1,1,1,1,1,1,1,1,1,1,1,1,1,1,1,1,1,7,7,1,1,1,1,1,1,1,1,1,1,1,1,1,1,1,1,1,1,1,1,1,1,1,1,1,1,1,1,1,1,1,7,7,1,1,1,1,1,1,1,1,1,1,1,1,1,1,1,1,1,1,1,1,1,1,1,1,1,1,1,1,1,7,7,7,1,1,1,1,1,1,1,1,1,1,1,1,1,1,1,1,1,1,1,1,1,1,1,1,1,1,1,1,1,1,1,1,1,1,1,1,1,1,1,1,1,1,1,1,1,1,1,1,1,1,1,1,1,3,3,3,1,1,1,1,1,1,1,1,1,1,1,1,1,1,1,1,1,1,1,1,1,1,1,1,1,1,1,1,1,3,3,3,1,1,1,1,1,1,1,1,1,1,1,1,1,1,1,1,1,1,1,1,1,1,1,1,1,1,1,1,1,3,3,3,1,1,1,1,1,1,1,1,1,1,1,1,1,1,1,1,1,1,1,1,1,1,1,1,1,1,1,1,1,1,1,1,1,1,1,1,1,1,1,1,1,1,1,1,1,1,1,1,1,1,1,1,1,1,1,1,1,1,1,1,1,1,1,1,1,1,1,1,1,1,1,1,1,1,1,1,1,1,1,1,1,1,1,1,1,1,1,1,1,1,1,1,1,1,1,1,1,6,1,1,1,1,1,1,1,1,1,5,1,1,1,1,1,1,1,1,1,1,1,1,1,1,1,1,1,1,1,1,1,6,1,1,1,1,1,1,1,1,1,5,1,1,1,1,1,1,1,1,1,1,1,1,1,1,1,1,1,1,1,1,1,6,1,1,1,1,1,1,1,1,1,1,1,1,1,1,1,1,1,1,1,1,1,1,1,1,1,1,1,1,1,1,1,1,1,1,1,1,1,1,1,1,1,1,1,1,1,1,1,1,1,1,1,1,1,1,1,1,1,1],"visible":true,"opacity":1,"x":0,"y":0},{"name":"walls","type":"objectgroup","objects":[{"id":1,"name":"wall0","x":0,"y":0,"polyline":[{"x":240,"y":392},{"x":226,"y":392},{"x":214,"y":393},{"x":203,"y":393},{"x":193,"y":394},{"x":184,"y":395},{"x":177,"y":396},{"x":171,"y":396},{"x":166,"y":396},{"x":163,"y":396},{"x":160,"y":396},{"x":158,"y":395},{"x":154,"y":394},{"x":148,"y":392},{"x":141,"y":390},{"x":136,"y":388},{"x":133,"y":387},{"x":131,"y":386},{"x":131,"y":386},{"x":131,"y":387},{"x":131,"y":387},{"x":131,"y":386},{"x":130,"y":383},{"x":128,"y":379},{"x":126,"y":371},{"x":124,"y":360},{"x":123,"y":346},{"x":121,"y":328},{"x":121,"y":308},{"x":120,"y":287},{"x":120,"y":265},{"x":120,"y":243},{"x":121,"y":222},{"x":121,"y":202},{"x":123,"y":184},{"x":124,"y":170},{"x":126,"y":158},{"x":128,"y":149},{"x":130,"y":142},{"x":134,"y":140},{"x":141,"y":138},{"x":149,"y":136},{"x":159,"y":134},{"x":170,"y":133},{"x":185,"y":131},{"x":201,"y":131},{"x":218,"y":130},{"x":235,"y":130},{"x":253,"y":130},{"x":270,"y":131},{"x":285,"y":132},{"x":300,"y":133},{"x":311,"y":134},{"x":320,"y":136},{"x":326,"y":137},{"x":330,"y":139},{"x":333,"y":141},{"x":336,"y":143},{"x":338,"y":145},{"x":340,"y":146},{"x":339,"y":145},{"x":336,"y":149},{"x":332,"y":153},{"x":327,"y":156},{"x":323,"y":160},{"x":318,"y":162},{"x":315,"y":164},{"x":313,"y":165},{"x":314,"y":165},{"x":315,"y":165},{"x":314,"y":165},{"x":311,"y":164},{"x":306,"y":164},{"x":300,"y":163},{"x":293,"y":161},{"x":285,"y":160},{"x":275,"y":159},{"x":264,"y":159},{"x":251,"y":161},{"x":238,"y":165},{"x":229,"y":170},{"x":220,"y":174},{"x":212,"y":180},{"x":203,"y":185},{"x":195,"y":192},{"x":187,"y":199},{"x":180,"y":206},{"x":172,"y":214},{"x":166,"y":223},{"x":159,"y":234},{"x":154,"y":247},{"x":152,"y":261},{"x":152,"y":272},{"x":153,"y":281},{"x":155,"y":290},{"x":158,"y":301},{"x":163,"y":312},{"x":170,"y":323},{"x":179,"y":334},{"x":190,"y":343},{"x":202,"y":351},{"x":216,"y":357},{"x":231,"y":363},{"x":247,"y":366},{"x":265,"y":369},{"x":285,"y":370},{"x":306,"y":371},{"x":329,"y":371},{"x":353,"y":371},{"x":378,"y":371},{"x":403,"y":370},{"x":427,"y":369},{"x":451,"y":368},{"x":473,"y":368}],"visible":true,"rotation":0},{"id":2,"name":"wall1","x":0,"y":0,"polyline":[{"x":473,"y":368},{"x":494,"y":367},{"x":512,"y":367},{"x":530,"y":367},{"x":548,"y":366},{"x":565,"y":366},{"x":581,"y":365}],"visible":true,"rotation":0,"properties":[{"name":"under","type":"bool","value":true}]},{"id":3,"name":"wall2","x":0,"y":0,"polyline":[{"x":581,"y":365},{"x":596,"y":364},{"x":610,"y":363},{"x":623,"y":363},{"x":635,"y":363},{"x":646,"y":363},{"x":655,"y":363},{"x":663,"y":364},{"x":669,"y":366},{"x":672,"y":367},{"x":674,"y":367},{"x":674,"y":368},{"x":675,"y":369},{"x":676,"y":370},{"x":678,"y":372},{"x":680,"y":376},{"x":683,"y":381},{"x":687,"y":387},{"x":691,"y":395},{"x":697,"y":403},{"x":704,"y":410},{"x":708,"y":415},{"x":711,"y":419},{"x":715,"y":423},{"x":719,"y":429},{"x":724,"y":435},{"x":729,"y":441},{"x":734,"y":447},{"x":741,"y":454},{"x":748,"y":461},{"x":757,"y":468},{"x":767,"y":474},{"x":778,"y":479},{"x":788,"y":482},{"x":798,"y":485},{"x":809,"y":487},{"x":819,"y":488},{"x":829,"y":489},{"x":840,"y":489},{"x":850,"y":489},{"x":861,"y":488},{"x":871,"y":487},{"x":882,"y":485},{"x":892,"y":482},{"x":901,"y":480},{"x":907,"y":477},{"x":912,"y":476},{"x":919,"y":473},{"x":928,"y":470},{"x":937,"y":466},{"x":947,"y":460},{"x":957,"y":452},{"x":966,"y":442},{"x":973,"y":430},{"x":980,"y":417},{"x":984,"y":404},{"x":988,"y":389},{"x":991,"y":372},{"x":993,"y":354},{"x":994,"y":333},{"x":995,"y":311},{"x":996,"y":289},{"x":996,"y":265},{"x":996,"y":242},{"x":995,"y":219},{"x":994,"y":197},{"x":993,"y":176},{"x":991,"y":158},{"x":988,"y":142},{"x":986,"y":132},{"x":985,"y":123},{"x":984,"y":115},{"x":982,"y":106},{"x":979,"y":94},{"x":971,"y":79},{"x":958,"y":67},{"x":945,"y":59},{"x":932,"y":55},{"x":920,"y":52},{"x":908,"y":50},{"x":892,"y":47},{"x":872,"y":45},{"x":848,"y":43},{"x":821,"y":42},{"x":791,"y":41},{"x":760,"y":40},{"x":728,"y":40},{"x":696,"y":40},{"x":665,"y":41},{"x":635,"y":42},{"x":608,"y":43},{"x":584,"y":45},{"x":564,"y":47},{"x":547,"y":50},{"x":533,"y":54},{"x":520,"y":58},{"x":507,"y":64},{"x":494,"y":73},{"x":484,"y":86},{"x":477,"y":99},{"x":474,"y":110},{"x":472,"y":119},{"x":471,"y":126},{"x":470,"y":132},{"x":468,"y":141},{"x":465,"y":154},{"x":464,"y":170},{"x":463,"y":186},{"x":463,"y":203},{"x":463,"y":220},{"x":463,"y":237},{"x":464,"y":255},{"x":465,"y":271}],"visible":true,"rotation":0},{"id":4,"name":"wall3","x":0,"y":0,"polyline":[{"x":465,"y":271},{"x":466,"y":286},{"x":466,"y":300},{"x":467,"y":313},{"x":467,"y":323},{"x":467,"y":333},{"x":468,"y":342},{"x":469,"y":350},{"x":470,"y":357},{"x":470,"y":362},{"x":471,"y":364},{"x":471,"y":363},{"x":468,"y":369}],"visible":true,"rotation":0,"properties":[{"name":"deck","type":"bool","value":true}]},{"id":5,"name":"wall4","x":0,"y":0,"polyline":[{"x":468,"y":369},{"x":466,"y":375},{"x":464,"y":380},{"x":463,"y":383}],"visible":true,"rotation":0,"properties":[{"name":"under","type":"bool","value":true}]},{"id":6,"name":"wall5","x":0,"y":0,"polyline":[{"x":463,"y":383},{"x":461,"y":385},{"x":461,"y":387},{"x":460,"y":387},{"x":460,"y":388},{"x":458,"y":389},{"x":456,"y":390},{"x":452,"y":391},{"x":446,"y":393},{"x":437,"y":394},{"x":424,"y":395},{"x":409,"y":396},{"x":391,"y":396},{"x":371,"y":396},{"x":351,"y":395},{"x":331,"y":395},{"x":311,"y":394},{"x":291,"y":393},{"x":272,"y":393},{"x":255,"y":392},{"x":240,"y":392}],"visible":true,"rotation":0},{"id":7,"name":"wall6","x":0,"y":0,"polyline":[{"x":240,"y":482},{"x":229,"y":482},{"x":219,"y":483},{"x":209,"y":483},{"x":200,"y":484},{"x":192,"y":485},{"x":184,"y":485},{"x":175,"y":486},{"x":166,"y":486},{"x":156,"y":486},{"x":146,"y":485},{"x":135,"y":483},{"x":126,"y":480},{"x":119,"y":478},{"x":113,"y":476},{"x":106,"y":473},{"x":98,"y":470},{"x":89,"y":466},{"x":79,"y":459},{"x":69,"y":451},{"x":60,"y":441},{"x":52,"y":430},{"x":46,"y":417},{"x":41,"y":403},{"x":38,"y":389},{"x":35,"y":372},{"x":33,"y":354},{"x":32,"y":333},{"x":31,"y":311},{"x":30,"y":289},{"x":30,"y":265},{"x":30,"y":242},{"x":31,"y":219},{"x":32,"y":197},{"x":33,"y":176},{"x":35,"y":158},{"x":38,"y":142},{"x":41,"y":129},{"x":44,"y":117},{"x":47,"y":106},{"x":52,"y":95},{"x":60,"y":83},{"x":69,"y":73},{"x":80,"y":65},{"x":91,"y":59},{"x":101,"y":56},{"x":110,"y":53},{"x":120,"y":51},{"x":131,"y":48},{"x":145,"y":45},{"x":161,"y":43},{"x":178,"y":42},{"x":196,"y":41},{"x":216,"y":40},{"x":235,"y":40},{"x":255,"y":40},{"x":274,"y":41},{"x":292,"y":42},{"x":309,"y":43},{"x":325,"y":45},{"x":340,"y":48},{"x":354,"y":52},{"x":367,"y":57},{"x":379,"y":63},{"x":390,"y":71},{"x":400,"y":79},{"x":408,"y":88},{"x":415,"y":97},{"x":421,"y":107},{"x":426,"y":117},{"x":429,"y":127},{"x":431,"y":138},{"x":432,"y":151},{"x":430,"y":165},{"x":425,"y":179},{"x":419,"y":189},{"x":412,"y":198},{"x":405,"y":207},{"x":398,"y":214},{"x":390,"y":221},{"x":382,"y":228},{"x":374,"y":234},{"x":365,"y":239},{"x":357,"y":244},{"x":347,"y":249},{"x":334,"y":253},{"x":322,"y":255},{"x":310,"y":255},{"x":300,"y":254},{"x":292,"y":253},{"x":285,"y":251},{"x":279,"y":250},{"x":274,"y":250},{"x":271,"y":249},{"x":270,"y":249},{"x":271,"y":249},{"x":272,"y":249},{"x":270,"y":250},{"x":266,"y":252},{"x":261,"y":255},{"x":257,"y":258},{"x":252,"y":262},{"x":248,"y":265},{"x":244,"y":269},{"x":243,"y":270},{"x":243,"y":270},{"x":243,"y":270},{"x":243,"y":270},{"x":244,"y":271},{"x":246,"y":272},{"x":249,"y":274},{"x":255,"y":276},{"x":263,"y":278},{"x":274,"y":279},{"x":290,"y":280},{"x":308,"y":281},{"x":329,"y":281},{"x":352,"y":281},{"x":376,"y":281},{"x":400,"y":280},{"x":424,"y":279},{"x":448,"y":278},{"x":471,"y":278}],"visible":true,"rotation":0},{"id":8,"name":"wall7","x":0,"y":0,"polyline":[{"x":471,"y":278},{"x":492,"y":277},{"x":512,"y":277},{"x":529,"y":277},{"x":545,"y":276},{"x":561,"y":276},{"x":576,"y":275}],"visible":true,"rotation":0,"properties":[{"name":"under","type":"bool","value":true}]},{"id":9,"name":"wall8","x":0,"y":0,"polyline":[{"x":576,"y":275},{"x":592,"y":274},{"x":607,"y":273},{"x":621,"y":273},{"x":636,"y":273},{"x":650,"y":273},{"x":664,"y":274},{"x":677,"y":276},{"x":691,"y":278},{"x":705,"y":283},{"x":718,"y":289},{"x":730,"y":297},{"x":739,"y":305},{"x":747,"y":314},{"x":753,"y":322},{"x":757,"y":330},{"x":761,"y":336},{"x":764,"y":341},{"x":766,"y":345},{"x":768,"y":347},{"x":770,"y":350},{"x":775,"y":355},{"x":781,"y":362},{"x":786,"y":368},{"x":790,"y":374},{"x":794,"y":379},{"x":798,"y":383},{"x":801,"y":387},{"x":804,"y":390},{"x":806,"y":392},{"x":808,"y":394},{"x":809,"y":395},{"x":810,"y":395},{"x":813,"y":396},{"x":817,"y":397},{"x":822,"y":398},{"x":828,"y":399},{"x":834,"y":399},{"x":840,"y":399},{"x":846,"y":399},{"x":852,"y":399},{"x":858,"y":398},{"x":863,"y":397},{"x":867,"y":396},{"x":871,"y":394},{"x":878,"y":392},{"x":884,"y":390},{"x":889,"y":388},{"x":892,"y":387},{"x":894,"y":386},{"x":895,"y":386},{"x":895,"y":386},{"x":895,"y":386},{"x":895,"y":385},{"x":896,"y":383},{"x":898,"y":378},{"x":900,"y":371},{"x":902,"y":360},{"x":903,"y":346},{"x":905,"y":328},{"x":905,"y":308},{"x":906,"y":287},{"x":906,"y":265},{"x":906,"y":243},{"x":905,"y":222},{"x":905,"y":202},{"x":903,"y":184},{"x":902,"y":170},{"x":900,"y":158},{"x":898,"y":146},{"x":892,"y":139},{"x":880,"y":137},{"x":863,"y":135},{"x":842,"y":133},{"x":817,"y":132},{"x":789,"y":131},{"x":759,"y":130},{"x":728,"y":130},{"x":697,"y":130},{"x":667,"y":131},{"x":639,"y":132},{"x":614,"y":133},{"x":593,"y":135},{"x":576,"y":137},{"x":565,"y":139},{"x":560,"y":140},{"x":558,"y":150},{"x":556,"y":159},{"x":555,"y":167},{"x":554,"y":177},{"x":553,"y":189},{"x":553,"y":203},{"x":553,"y":218},{"x":553,"y":234},{"x":554,"y":250},{"x":555,"y":267}],"visible":true,"rotation":0},{"id":10,"name":"wall9","x":0,"y":0,"polyline":[{"x":555,"y":267},{"x":556,"y":282},{"x":556,"y":297},{"x":557,"y":310},{"x":557,"y":321},{"x":557,"y":329},{"x":558,"y":335},{"x":558,"y":340},{"x":559,"y":344},{"x":559,"y":348},{"x":560,"y":353},{"x":561,"y":359},{"x":561,"y":367},{"x":561,"y":376},{"x":559,"y":385}],"visible":true,"rotation":0,"properties":[{"name":"deck","type":"bool","value":true}]},{"id":11,"name":"wall10","x":0,"y":0,"polyline":[{"x":559,"y":385},{"x":556,"y":394},{"x":553,"y":401},{"x":551,"y":405},{"x":549,"y":409},{"x":547,"y":415},{"x":544,"y":422},{"x":539,"y":431},{"x":533,"y":440},{"x":526,"y":449},{"x":516,"y":458},{"x":505,"y":466},{"x":492,"y":472},{"x":479,"y":477},{"x":464,"y":481},{"x":447,"y":484},{"x":430,"y":485},{"x":411,"y":486},{"x":391,"y":486},{"x":370,"y":486},{"x":349,"y":485},{"x":328,"y":485},{"x":307,"y":484},{"x":288,"y":483},{"x":270,"y":483},{"x":253,"y":482},{"x":240,"y":482}],"visible":true,"rotation":0}],"visible":true,"opacity":1,"x":0,"y":0,"id":31},{"name":"checkpoints","type":"objectgroup","objects":[{"id":19,"name":"cp7","x":0,"y":0,"polyline":[{"x":563,"y":44},{"x":577,"y":140}],"visible":true,"rotation":0},{"id":18,"name":"cp6","x":0,"y":0,"polyline":[{"x":991,"y":142},{"x":897,"y":158}],"visible":true,"rotation":0},{"id":17,"name":"cp5","x":0,"y":0,"polyline":[{"x":902,"y":482},{"x":870,"y":392}],"visible":true,"rotation":0},{"id":16,"name":"cp4","x":0,"y":0,"polyline":[{"x":668,"y":368},{"x":692,"y":276}],"visible":true,"rotation":0},{"id":15,"name":"cp3","x":0,"y":0,"polyline":[{"x":237,"y":162},{"x":273,"y":252}],"visible":true,"rotation":0},{"id":14,"name":"cp2","x":0,"y":0,"polyline":[{"x":319,"y":139},{"x":341,"y":45}],"visible":true,"rotation":0},{"id":13,"name":"cp1","x":0,"y":0,"polyline":[{"x":129,"y":159},{"x":35,"y":141}],"visible":true,"rotation":0},{"id":20,"name":"finish","x":0,"y":0,"polyline":[{"x":240,"y":389},{"x":240,"y":485}],"visible":true,"rotation":0}],"visible":true,"opacity":1,"x":0,"y":0,"id":32},{"name":"spawns","type":"objectgroup","objects":[{"id":21,"name":"spawn1","point":true,"x":192,"y":460,"rotation":353.2901631922431,"visible":true},{"id":22,"name":"spawn2","point":true,"x":155,"y":420,"rotation":12.994616791916503,"visible":true},{"id":23,"name":"spawn3","point":true,"x":102,"y":445,"rotation":30.963756532073518,"visible":true},{"id":24,"name":"spawn4","point":true,"x":106,"y":392,"rotation":73.30075576600638,"visible":true},{"id":25,"name":"spawn5","point":true,"x":59,"y":361,"rotation":82.40535663140854,"visible":true}],"visible":true,"opacity":1,"x":0,"y":0,"id":33},{"name":"waypoints","type":"objectgroup","objects":[{"id":29,"name":"line","x":0,"y":0,"polygon":[{"x":271,"y":438},{"x":309,"y":439},{"x":350,"y":440},{"x":391,"y":441},{"x":427,"y":440},{"x":455,"y":437},{"x":474,"y":431},{"x":488,"y":423},{"x":497,"y":413},{"x":503,"y":403},{"x":508,"y":392},{"x":512,"y":382},{"x":515,"y":374},{"x":516,"y":367},{"x":516,"y":359},{"x":514,"y":350},{"x":513,"y":339},{"x":512,"y":322},{"x":511,"y":298},{"x":510,"y":269},{"x":508,"y":236},{"x":508,"y":203},{"x":509,"y":173},{"x":512,"y":150},{"x":515,"y":133},{"x":517,"y":120},{"x":521,"y":110},{"x":529,"y":103},{"x":545,"y":97},{"x":570,"y":92},{"x":611,"y":88},{"x":666,"y":86},{"x":728,"y":85},{"x":790,"y":86},{"x":845,"y":88},{"x":886,"y":92},{"x":911,"y":96},{"x":927,"y":101},{"x":935,"y":107},{"x":939,"y":116},{"x":941,"y":130},{"x":944,"y":150},{"x":948,"y":180},{"x":950,"y":220},{"x":951,"y":265},{"x":950,"y":310},{"x":948,"y":350},{"x":944,"y":380},{"x":938,"y":400},{"x":930,"y":414},{"x":921,"y":423},{"x":910,"y":429},{"x":898,"y":433},{"x":886,"y":437},{"x":872,"y":441},{"x":857,"y":443},{"x":840,"y":444},{"x":823,"y":443},{"x":808,"y":441},{"x":794,"y":437},{"x":782,"y":431},{"x":772,"y":422},{"x":763,"y":412},{"x":755,"y":401},{"x":746,"y":390},{"x":737,"y":380},{"x":729,"y":370},{"x":722,"y":359},{"x":715,"y":347},{"x":707,"y":337},{"x":696,"y":328},{"x":680,"y":322},{"x":659,"y":319},{"x":636,"y":318},{"x":609,"y":318},{"x":579,"y":320},{"x":546,"y":321},{"x":512,"y":322},{"x":472,"y":323},{"x":426,"y":324},{"x":377,"y":326},{"x":329,"y":326},{"x":287,"y":325},{"x":255,"y":322},{"x":232,"y":316},{"x":217,"y":307},{"x":206,"y":297},{"x":200,"y":285},{"x":198,"y":274},{"x":197,"y":264},{"x":200,"y":254},{"x":207,"y":243},{"x":218,"y":232},{"x":230,"y":222},{"x":243,"y":213},{"x":255,"y":207},{"x":267,"y":204},{"x":279,"y":205},{"x":293,"y":207},{"x":306,"y":209},{"x":318,"y":210},{"x":330,"y":207},{"x":342,"y":201},{"x":355,"y":192},{"x":367,"y":182},{"x":377,"y":170},{"x":384,"y":159},{"x":387,"y":149},{"x":386,"y":139},{"x":381,"y":128},{"x":374,"y":117},{"x":363,"y":107},{"x":349,"y":98},{"x":330,"y":92},{"x":305,"y":88},{"x":272,"y":86},{"x":235,"y":85},{"x":198,"y":86},{"x":166,"y":88},{"x":140,"y":92},{"x":122,"y":96},{"x":109,"y":101},{"x":99,"y":107},{"x":92,"y":116},{"x":87,"y":130},{"x":82,"y":150},{"x":78,"y":180},{"x":76,"y":220},{"x":75,"y":265},{"x":76,"y":310},{"x":78,"y":350},{"x":82,"y":380},{"x":88,"y":400},{"x":95,"y":414},{"x":105,"y":423},{"x":115,"y":429},{"x":127,"y":433},{"x":140,"y":437},{"x":153,"y":440},{"x":166,"y":441},{"x":180,"y":441},{"x":197,"y":439},{"x":216,"y":438},{"x":240,"y":437}],"visible":true,"rotation":0}],"visible":true,"opacity":1,"x":0,"y":0,"id":34},{"name":"items","type":"objectgroup","objects":[{"id":26,"name":"item1","point":true,"x":686,"y":70,"rotation":0,"visible":true},{"id":27,"name":"item2","point":true,"x":730,"y":92,"rotation":0,"visible":true},{"id":28,"name":"item3","point":true,"x":774,"y":114,"rotation":0,"visible":true}],"visible":true,"opacity":1,"x":0,"y":0,"id":35},{"name":"bridges","type":"objectgroup","objects":[{"id":12,"name":"deck","x":452,"y":262,"width":120,"height":120,"rotation":0,"visible":true,"properties":[{"name":"entry","type":"string","value":"bottom"}]}],"visible":true,"opacity":1,"x":0,"y":0,"id":36}]}