{"type":"map","version":"1.10","tiledversion":"1.11.0","orientation":"orthogonal","renderorder":"right-down","width":32,"height":16,"tilewidth":32,"tileheight":32,"infinite":false,"nextlayerid":99,"nextobjectid":22,"tilesets":[{"firstgid":1,"name":"surfaces","tilewidth":32,"tileheight":32,"tilecount":9,"columns":9,"image":"surfaces.png","imagewidth":288,"imageheight":32,"tiles":[{"id":0,"properties":[{"name":"surface","type":"string","value":"dirt"}]},{"id":1,"properties":[{"name":"surface","type":"string","value":"tarmac"}]},{"id":2,"properties":[{"name":"surface","type":"string","value":"mud"}]},{"id":3,"properties":[{"name":"surface","type":"string","value":"water"}]},{"id":4,"properties":[{"name":"surface","type":"string","value":"oil"}]},{"id":5,"properties":[{"name":"surface","type":"string","value":"boost"}]},{"id":6,"properties":[{"name":"surface","type":"string","value":"toxic"}]},{"id":7,"properties":[{"name":"surface","type":"string","value":"mogul"}]},{"id":8,"properties":[{"name":"surface","type":"string","value":"ramp"}]}]}],"layers":[{"id":21,"name":"surface","type":"tilelayer","width":32,"height":16,"data":[1,1,1,1,1,1,1,1,1,1,1,1,1,1,1,1,1,1,1,1,1,1,1,1,1,1,1,1,1,1,1,1,1,1,1,1,1,1,1,1,1,1,1,1,1,6,1,1,1,1,1,1,1,1,1,1,1,1,1,1,1,1,1,1,1,1,1,1,1,1,1,1,1,1,1,1,1,6,1,1,1,1,1,1,1,1,1,1,1,1,1,1,1,1,1,1,1,1,1,1,1,1,1,1,1,1,1,1,1,6,1,1,1,1,1,1,1,1,1,1,1,1,1,7,7,1,1,1,1,1,1,1,1,1,1,1,1,1,1,1,1,1,1,1,1,1,1,1,1,1,1,1,1,1,1,1,7,1,1,1,1,1,1,1,1,1,1,1,1,1,1,1,1,1,1,1,1,1,1,1,1,3,3,3,1,1,7,7,7,1,1,1,1,1,1,1,1,1,1,1,1,1,1,1,1,1,1,1,1,1,1,1,1,3,3,3,1,1,1,1,1,1,1,1,1,9,9,9,1,1,1,1,1,1,1,1,1,1,1,1,1,1,1,1,1,3,3,3,1,1,1,1,1,1,1,1,1,1,1,1,1,1,1,1,1,1,1,1,1,1,1,1,4,4,4,1,1,1,1,1,1,1,1,1,1,1,1,1,1,9,9,9,1,1,1,1,1,1,1,1,1,1,1,1,4,4,4,1,1,1,1,1,1,1,1,1,1,1,1,1,1,1,1,1,1,1,1,1,1,1,1,1,1,1,1,1,4,4,4,1,1,1,1,1,1,1,1,1,1,1,1,1,1,1,1,1,1,1,1,1,1,1,1,1,1,1,1,1,4,4,4,1,1,1,1,1,1,1,1,1,1,1,1,1,1,1,1,1,1,1,1,1,2,2,2,2,2,2,2,2,2,2,2,2,2,2,2,1,1,1,1,1,1,1,1,1,1,1,1,1,1,1,1,1,2,2,2,2,2,2,2,2,2,2,2,2,2,2,2,1,1,1,1,1,1,1,1,1,1,1,1,1,1,1,1,1,2,2,2,2,2,2,2,2,2,2,2,2,2,2,2,1,1,1,1,1,1,1,1,1,1,1,1,1,1,1,1,1,1,1,1,1,1,1,1,1,1,1,1,1,1,1,1,1,1,1,1,1,1,1,1,1],"visible":true,"opacity":1,"x":0,"y":0},{"name":"walls","type":"objectgroup","objects":[{"id":1,"name":"wall0","x":0,"y":0,"polygon":[{"x":380,"y":137},{"x":404,"y":137},{"x":430,"y":137},{"x":458,"y":137},{"x":486,"y":137},{"x":514,"y":137},{"x":543,"y":137},{"x":572,"y":137},{"x":600,"y":137},{"x":628,"y":137},{"x":653,"y":137},{"x":678,"y":137},{"x":700,"y":137},{"x":721,"y":137},{"x":742,"y":136},{"x":761,"y":136},{"x":779,"y":135},{"x":795,"y":134},{"x":811,"y":133},{"x":825,"y":133},{"x":838,"y":133},{"x":850,"y":133},{"x":860,"y":134},{"x":869,"y":135},{"x":876,"y":136},{"x":881,"y":137},{"x":886,"y":139},{"x":890,"y":141},{"x":893,"y":143},{"x":895,"y":145},{"x":897,"y":147},{"x":898,"y":148},{"x":899,"y":150},{"x":899,"y":151},{"x":899,"y":151},{"x":899,"y":150},{"x":899,"y":151},{"x":899,"y":155},{"x":897,"y":158},{"x":890,"y":160},{"x":879,"y":162},{"x":864,"y":164},{"x":845,"y":165},{"x":822,"y":166},{"x":796,"y":166},{"x":769,"y":166},{"x":739,"y":166},{"x":709,"y":165},{"x":678,"y":164},{"x":647,"y":163},{"x":617,"y":163},{"x":588,"y":162},{"x":560,"y":162},{"x":534,"y":162},{"x":506,"y":161},{"x":478,"y":161},{"x":449,"y":160},{"x":420,"y":159},{"x":392,"y":158},{"x":364,"y":158},{"x":338,"y":158},{"x":312,"y":158},{"x":289,"y":159},{"x":268,"y":160},{"x":248,"y":163},{"x":230,"y":166},{"x":214,"y":171},{"x":200,"y":177},{"x":187,"y":185},{"x":175,"y":195},{"x":166,"y":207},{"x":159,"y":219},{"x":155,"y":231},{"x":153,"y":242},{"x":152,"y":251},{"x":152,"y":259},{"x":152,"y":264},{"x":152,"y":269},{"x":152,"y":277},{"x":153,"y":286},{"x":155,"y":297},{"x":159,"y":309},{"x":166,"y":321},{"x":175,"y":333},{"x":186,"y":343},{"x":199,"y":351},{"x":214,"y":358},{"x":230,"y":363},{"x":248,"y":366},{"x":268,"y":369},{"x":289,"y":370},{"x":312,"y":371},{"x":338,"y":371},{"x":364,"y":371},{"x":392,"y":371},{"x":420,"y":370},{"x":449,"y":369},{"x":478,"y":368},{"x":506,"y":368},{"x":534,"y":367},{"x":560,"y":367},{"x":588,"y":367},{"x":617,"y":366},{"x":647,"y":366},{"x":678,"y":365},{"x":709,"y":364},{"x":739,"y":363},{"x":769,"y":363},{"x":796,"y":363},{"x":822,"y":363},{"x":845,"y":364},{"x":864,"y":365},{"x":879,"y":367},{"x":890,"y":369},{"x":897,"y":371},{"x":899,"y":374},{"x":899,"y":381},{"x":899,"y":389},{"x":894,"y":390},{"x":880,"y":392},{"x":862,"y":394},{"x":839,"y":395},{"x":811,"y":396},{"x":781,"y":396},{"x":748,"y":396},{"x":713,"y":396},{"x":676,"y":395},{"x":640,"y":394},{"x":603,"y":393},{"x":567,"y":393},{"x":533,"y":392},{"x":500,"y":392},{"x":468,"y":392},{"x":434,"y":393},{"x":400,"y":393},{"x":366,"y":394},{"x":332,"y":395},{"x":299,"y":396},{"x":267,"y":396},{"x":237,"y":396},{"x":209,"y":396},{"x":184,"y":395},{"x":163,"y":394},{"x":145,"y":392},{"x":131,"y":390},{"x":128,"y":385},{"x":126,"y":373},{"x":124,"y":360},{"x":123,"y":346},{"x":121,"y":328},{"x":121,"y":308},{"x":120,"y":287},{"x":120,"y":265},{"x":120,"y":243},{"x":121,"y":222},{"x":121,"y":202},{"x":123,"y":184},{"x":124,"y":170},{"x":126,"y":158},{"x":128,"y":148},{"x":130,"y":140},{"x":130,"y":140},{"x":138,"y":138},{"x":148,"y":136},{"x":159,"y":135},{"x":171,"y":134},{"x":187,"y":133},{"x":204,"y":133},{"x":222,"y":133},{"x":242,"y":133},{"x":264,"y":134},{"x":286,"y":135},{"x":309,"y":136},{"x":332,"y":136},{"x":356,"y":137}],"visible":true,"rotation":0},{"id":2,"name":"wall1","x":0,"y":0,"polygon":[{"x":380,"y":47},{"x":404,"y":47},{"x":430,"y":47},{"x":458,"y":47},{"x":486,"y":47},{"x":514,"y":47},{"x":543,"y":47},{"x":572,"y":47},{"x":600,"y":47},{"x":628,"y":47},{"x":653,"y":47},{"x":678,"y":47},{"x":700,"y":47},{"x":720,"y":47},{"x":739,"y":46},{"x":757,"y":46},{"x":775,"y":45},{"x":791,"y":44},{"x":808,"y":43},{"x":823,"y":43},{"x":838,"y":43},{"x":853,"y":43},{"x":868,"y":44},{"x":882,"y":45},{"x":896,"y":48},{"x":910,"y":52},{"x":923,"y":57},{"x":935,"y":63},{"x":946,"y":70},{"x":955,"y":78},{"x":964,"y":87},{"x":971,"y":96},{"x":977,"y":106},{"x":982,"y":116},{"x":986,"y":127},{"x":988,"y":138},{"x":989,"y":147},{"x":989,"y":153},{"x":989,"y":160},{"x":989,"y":169},{"x":987,"y":179},{"x":984,"y":192},{"x":977,"y":205},{"x":968,"y":217},{"x":956,"y":228},{"x":943,"y":237},{"x":928,"y":243},{"x":911,"y":248},{"x":893,"y":252},{"x":872,"y":254},{"x":849,"y":255},{"x":824,"y":256},{"x":796,"y":256},{"x":768,"y":256},{"x":738,"y":256},{"x":707,"y":255},{"x":676,"y":254},{"x":645,"y":253},{"x":615,"y":253},{"x":587,"y":252},{"x":560,"y":252},{"x":533,"y":252},{"x":504,"y":251},{"x":475,"y":251},{"x":446,"y":250},{"x":418,"y":249},{"x":390,"y":248},{"x":363,"y":248},{"x":338,"y":248},{"x":314,"y":248},{"x":293,"y":249},{"x":276,"y":250},{"x":262,"y":251},{"x":252,"y":253},{"x":245,"y":256},{"x":242,"y":256},{"x":242,"y":259},{"x":242,"y":264},{"x":242,"y":269},{"x":242,"y":272},{"x":241,"y":272},{"x":241,"y":272},{"x":245,"y":273},{"x":252,"y":276},{"x":262,"y":278},{"x":276,"y":279},{"x":294,"y":280},{"x":314,"y":281},{"x":338,"y":281},{"x":363,"y":281},{"x":390,"y":281},{"x":418,"y":280},{"x":446,"y":279},{"x":475,"y":278},{"x":504,"y":278},{"x":533,"y":277},{"x":560,"y":277},{"x":587,"y":277},{"x":615,"y":276},{"x":645,"y":276},{"x":676,"y":275},{"x":707,"y":274},{"x":738,"y":273},{"x":768,"y":273},{"x":796,"y":273},{"x":824,"y":273},{"x":849,"y":274},{"x":872,"y":275},{"x":893,"y":277},{"x":911,"y":281},{"x":928,"y":286},{"x":943,"y":292},{"x":956,"y":301},{"x":968,"y":312},{"x":977,"y":324},{"x":984,"y":337},{"x":987,"y":350},{"x":989,"y":360},{"x":989,"y":369},{"x":989,"y":376},{"x":989,"y":379},{"x":989,"y":381},{"x":990,"y":386},{"x":990,"y":393},{"x":990,"y":404},{"x":988,"y":417},{"x":983,"y":432},{"x":973,"y":447},{"x":960,"y":459},{"x":946,"y":467},{"x":930,"y":474},{"x":912,"y":478},{"x":892,"y":482},{"x":868,"y":484},{"x":842,"y":485},{"x":813,"y":486},{"x":781,"y":486},{"x":747,"y":486},{"x":711,"y":486},{"x":675,"y":485},{"x":638,"y":484},{"x":601,"y":483},{"x":566,"y":483},{"x":532,"y":482},{"x":500,"y":482},{"x":469,"y":482},{"x":436,"y":483},{"x":402,"y":483},{"x":368,"y":484},{"x":334,"y":485},{"x":300,"y":486},{"x":268,"y":486},{"x":237,"y":486},{"x":207,"y":486},{"x":180,"y":485},{"x":156,"y":484},{"x":135,"y":482},{"x":118,"y":479},{"x":104,"y":477},{"x":92,"y":474},{"x":79,"y":470},{"x":64,"y":462},{"x":51,"y":448},{"x":44,"y":432},{"x":41,"y":420},{"x":40,"y":411},{"x":40,"y":404},{"x":39,"y":397},{"x":38,"y":387},{"x":35,"y":372},{"x":33,"y":354},{"x":32,"y":333},{"x":31,"y":311},{"x":30,"y":289},{"x":30,"y":265},{"x":30,"y":242},{"x":31,"y":219},{"x":32,"y":197},{"x":33,"y":176},{"x":35,"y":158},{"x":38,"y":142},{"x":40,"y":130},{"x":42,"y":120},{"x":45,"y":109},{"x":49,"y":99},{"x":55,"y":87},{"x":64,"y":75},{"x":75,"y":66},{"x":87,"y":59},{"x":98,"y":55},{"x":109,"y":53},{"x":119,"y":50},{"x":132,"y":48},{"x":148,"y":45},{"x":166,"y":44},{"x":184,"y":43},{"x":204,"y":43},{"x":224,"y":43},{"x":245,"y":43},{"x":267,"y":44},{"x":289,"y":45},{"x":312,"y":46},{"x":334,"y":46},{"x":357,"y":47}],"visible":true,"rotation":0}],"visible":true,"opacity":1,"x":0,"y":0,"id":22},{"name":"checkpoints","type":"objectgroup","objects":[{"id":10,"name":"cp8","x":0,"y":0,"polyline":[{"x":129,"y":158},{"x":35,"y":142}],"visible":true,"rotation":0},{"id":9,"name":"cp7","x":0,"y":0,"polyline":[{"x":146,"y":389},{"x":134,"y":485}],"visible":true,"rotation":0},{"id":8,"name":"cp6","x":0,"y":0,"polyline":[{"x":880,"y":389},{"x":892,"y":485}],"visible":true,"rotation":0},{"id":7,"name":"cp5","x":0,"y":0,"polyline":[{"x":879,"y":369},{"x":893,"y":275}],"visible":true,"rotation":0},{"id":6,"name":"cp4","x":0,"y":0,"polyline":[{"x":247,"y":369},{"x":263,"y":275}],"visible":true,"rotation":0},{"id":5,"name":"cp3","x":0,"y":0,"polyline":[{"x":248,"y":160},{"x":262,"y":254}],"visible":true,"rotation":0},{"id":4,"name":"cp2","x":0,"y":0,"polyline":[{"x":879,"y":160},{"x":893,"y":254}],"visible":true,"rotation":0},{"id":3,"name":"cp1","x":0,"y":0,"polyline":[{"x":875,"y":139},{"x":897,"y":45}],"visible":true,"rotation":0},{"id":11,"name":"finish","x":0,"y":0,"polyline":[{"x":380,"y":140},{"x":380,"y":44}],"visible":true,"rotation":0}],"visible":true,"opacity":1,"x":0,"y":0,"id":23},{"name":"spawns","type":"objectgroup","objects":[{"id":12,"name":"spawn1","point":true,"x":430,"y":72,"rotation":180,"visible":true},{"id":13,"name":"spawn2","point":true,"x":470,"y":112,"rotation":180,"visible":true},{"id":14,"name":"spawn3","point":true,"x":510,"y":72,"rotation":180,"visible":true},{"id":15,"name":"spawn4","point":true,"x":550,"y":112,"rotation":180,"visible":true},{"id":16,"name":"spawn5","point":true,"x":590,"y":72,"rotation":180,"visible":true}],"visible":true,"opacity":1,"x":0,"y":0,"id":24},{"name":"waypoints","type":"objectgroup","objects":[{"id":20,"name":"line","x":0,"y":0,"polygon":[{"x":333,"y":91},{"x":287,"y":90},{"x":244,"y":88},{"x":204,"y":88},{"x":169,"y":89},{"x":140,"y":92},{"x":119,"y":96},{"x":105,"y":101},{"x":96,"y":107},{"x":90,"y":116},{"x":86,"y":130},{"x":82,"y":150},{"x":78,"y":180},{"x":76,"y":220},{"x":75,"y":265},{"x":76,"y":310},{"x":78,"y":350},{"x":82,"y":380},{"x":85,"y":400},{"x":86,"y":414},{"x":89,"y":423},{"x":96,"y":429},{"x":112,"y":433},{"x":140,"y":437},{"x":182,"y":440},{"x":237,"y":441},{"x":300,"y":441},{"x":367,"y":439},{"x":435,"y":438},{"x":500,"y":437},{"x":567,"y":438},{"x":639,"y":439},{"x":712,"y":441},{"x":781,"y":441},{"x":840,"y":440},{"x":886,"y":437},{"x":916,"y":431},{"x":934,"y":422},{"x":943,"y":412},{"x":945,"y":401},{"x":945,"y":390},{"x":944,"y":380},{"x":944,"y":370},{"x":943,"y":359},{"x":939,"y":347},{"x":929,"y":337},{"x":913,"y":328},{"x":886,"y":322},{"x":847,"y":319},{"x":796,"y":318},{"x":738,"y":318},{"x":677,"y":320},{"x":616,"y":321},{"x":560,"y":322},{"x":505,"y":323},{"x":448,"y":324},{"x":391,"y":326},{"x":338,"y":326},{"x":291,"y":325},{"x":255,"y":322},{"x":230,"y":316},{"x":213,"y":307},{"x":203,"y":297},{"x":199,"y":285},{"x":197,"y":274},{"x":197,"y":264},{"x":197,"y":254},{"x":199,"y":243},{"x":203,"y":232},{"x":213,"y":222},{"x":230,"y":213},{"x":255,"y":207},{"x":291,"y":204},{"x":338,"y":203},{"x":391,"y":203},{"x":448,"y":205},{"x":505,"y":206},{"x":560,"y":207},{"x":616,"y":208},{"x":677,"y":209},{"x":738,"y":211},{"x":796,"y":211},{"x":847,"y":210},{"x":886,"y":207},{"x":913,"y":201},{"x":929,"y":192},{"x":939,"y":182},{"x":943,"y":170},{"x":944,"y":159},{"x":944,"y":149},{"x":943,"y":139},{"x":938,"y":128},{"x":930,"y":117},{"x":919,"y":107},{"x":904,"y":98},{"x":886,"y":92},{"x":864,"y":89},{"x":838,"y":88},{"x":809,"y":88},{"x":777,"y":90},{"x":740,"y":91},{"x":700,"y":92},{"x":653,"y":92},{"x":600,"y":92},{"x":543,"y":92},{"x":486,"y":92},{"x":430,"y":92},{"x":380,"y":92}],"visible":true,"rotation":0}],"visible":true,"opacity":1,"x":0,"y":0,"id":25},{"name":"items","type":"objectgroup","objects":[{"id":17,"name":"item1","point":true,"x":362,"y":185,"rotation":0,"visible":true},{"id":18,"name":"item2","point":true,"x":406,"y":207,"rotation":0,"visible":true},{"id":19,"name":"item3","point":true,"x":450,"y":229,"rotation":0,"visible":true}],"visible":true,"opacity":1,"x":0,"y":0,"id":26},{"name":"bridges","type":"objectgroup","objects":[],"visible":true,"opacity":1,"x":0,"y":0,"id":27}]}